X: 42358
T: Welcome Return, The
R: jig
M: 6/8
K: Dmajor
DFA [Dd]2c|dBd AFD|GAB AFD|EFE EDB,|
A,B,D EFD|EFA dDc|BdB AFD|EFE EDB,:|
G,Bg gae|B,Fd fed|BdB AFD|EFE EDB,|
A,B,D EFD|EFA dDc|BdB AFD|EFE EDB,:|

